src/medkit.svg

<?xml version="1.0" encoding="utf-8"?>
<!-- Generated by IcoMoon.io -->
<!DOCTYPE svg PUBLIC "-//W3C//DTD SVG 1.1//EN" "http://www.w3.org/Graphics/SVG/1.1/DTD/svg11.dtd">
<svg version="1.1" xmlns="http://www.w3.org/2000/svg" xmlns:xlink="http://www.w3.org/1999/xlink" width="512" height="512" viewBox="0 0 512 512">
<path fill="#000000" d="M472.2 144h-120.2v-30.7c-1-28.2-21.7-49.3-51.2-49.3h-89.6c-29.4 0-50.2 21.1-51.2 49.3v30.7h-120.2c-4.4 0-7.8 3.6-7.8 8v288c0 4.4 3.3 8 7.8 8h432.5c4.4 0 7.8-3.6 7.8-8v-288c-0.1-4.4-3.4-8-7.9-8zM192 117.2c0-0.4 0-0.7 0-1s0-0.6 0-1c0-9.7 8.6-19.3 18.8-19.3h90.4c10.1 0 18.8 9.5 18.8 19.3 0 0.3 0 0.6 0 1s0 0.6 0 1v26.8h-128v-26.8zM352 320h-64v64h-64v-64h-64v-64h64v-64h64v64h64v64z"></path>
</svg>

<?xml version="1.0" encoding="utf-8"?>
<!-- Generator: Adobe Illustrator 16.2.1, SVG Export Plug-In . SVG Version: 6.00 Build 0)  -->
<!DOCTYPE svg PUBLIC "-//W3C//DTD SVG 1.1//EN" "http://www.w3.org/Graphics/SVG/1.1/DTD/svg11.dtd">
<svg version="1.1" id="Layer_1" xmlns="http://www.w3.org/2000/svg" xmlns:xlink="http://www.w3.org/1999/xlink" x="0px" y="0px"
	 width="512px" height="512px" viewBox="0 0 512 512" style="enable-background:new 0 0 512 512;" xml:space="preserve">
<g>
	<path d="M472.2,144H352v-30.7C351,85.1,330.3,64,300.8,64H256h-44.8c-29.4,0-50.2,21.1-51.2,49.3V144H39.8c-4.4,0-7.8,3.6-7.8,8
		v288c0,4.4,3.3,8,7.8,8h432.5c4.4,0,7.8-3.6,7.8-8V152C480,147.6,476.7,144,472.2,144z M192,117.2c0-0.4,0-0.7,0-1s0-0.6,0-1
		c0-9.7,8.6-19.3,18.8-19.3H256h45.2c10.1,0,18.8,9.5,18.8,19.3c0,0.3,0,0.6,0,1s0,0.6,0,1V144H192V117.2z M352,320h-64v64h-64v-64
		h-64v-64h64v-64h64v64h64V320z"/>
</g>
</svg>
